<?xml version="1.0" encoding="UTF-8"?>
<map version="1.10" tiledversion="1.11.2" orientation="orthogonal" renderorder="right-down" width="30" height="30" tilewidth="32" tileheight="32" infinite="0" nextlayerid="9" nextobjectid="11">
 <properties>
  <property name="display_name" value="Atomien"/>
  <property name="map_id" value="village"/>
  <property name="music" value="overworld"/>
 </properties>
 <tileset firstgid="1" source="../tiled/village/TiledMap Editor/tilesets/tilesets-village.tsx"/>
 <tileset firstgid="487" source="../tiled/pirat/TiledMap Editor/Tilesets/platform - grass - coast.tsx"/>
 <tileset firstgid="1473" source="../tiled/pirat/TiledMap Editor/Tilesets/Tilesets-GL2SA.tsx"/>
 <tileset firstgid="2177" source="../tiled/village/TiledMap Editor/tilesets/Premade_houses.tsx"/>
 <tileset firstgid="6273" source="../tiled/tilesets/collision.tsx"/>
 <tileset firstgid="6274" source="../tiled/village/TiledMap Editor/tilesets/props.tsx"/>
 <layer id="1" name="ground_base" width="30" height="30">
  <data encoding="csv">
557,557,591,557,557,592,625,590,625,590,557,557,592,592,592,557,590,592,590,625,625,590,590,591,625,625,557,557,590,591,
591,590,590,592,592,557,557,592,591,625,625,557,591,590,590,590,590,590,590,557,591,591,557,591,557,625,625,557,591,591,
557,592,592,592,625,590,591,592,591,592,625,592,557,590,592,625,590,591,557,591,591,592,590,590,591,625,625,590,591,590,
592,591,557,592,557,591,590,557,590,592,625,591,590,591,625,625,590,557,592,592,557,592,590,557,591,625,625,625,591,557,
592,625,592,557,592,557,591,557,625,591,625,625,590,590,557,625,591,591,625,557,625,592,592,557,591,590,590,590,591,625,
592,592,592,625,591,557,625,592,592,592,590,590,625,557,557,591,625,591,592,592,625,591,625,557,591,591,557,591,591,557,
625,557,625,625,590,590,592,557,591,590,590,591,590,592,592,592,591,625,557,590,590,592,592,592,592,592,590,590,557,625,
592,625,592,591,625,625,592,591,625,625,590,557,592,592,625,592,557,592,557,625,591,591,592,625,592,590,557,590,557,592,
590,592,590,625,625,625,590,591,557,625,625,590,590,557,590,590,592,590,591,557,625,625,591,625,557,557,591,591,590,557,
557,557,590,591,591,592,557,625,557,591,557,625,592,592,557,625,591,590,557,590,557,625,625,590,625,625,590,590,625,625,
591,625,557,592,557,557,591,557,557,590,557,557,592,625,557,591,625,591,557,592,557,590,591,592,557,590,625,590,625,591,
557,625,557,557,592,590,591,591,557,591,557,557,592,625,590,590,625,591,625,625,557,625,625,557,591,625,557,592,557,557,
557,592,592,590,625,591,591,625,591,557,625,625,591,557,590,592,591,590,625,592,591,592,557,590,625,590,625,590,591,557,
557,590,625,625,591,591,625,557,625,592,592,625,557,592,591,625,591,625,557,592,591,590,591,592,557,557,592,592,625,557,
591,591,557,591,592,592,557,557,592,557,557,557,557,557,590,625,557,591,592,592,590,591,591,590,557,590,592,592,590,625,
592,590,592,557,557,557,557,590,592,625,591,592,592,592,557,625,557,557,557,592,625,557,590,590,557,592,557,590,591,625,
590,592,557,591,557,590,625,592,590,625,592,557,592,591,592,557,625,557,590,591,591,592,590,590,590,590,590,592,590,592,
590,591,625,590,591,592,625,592,591,557,591,557,625,592,591,591,592,592,557,557,557,625,557,591,591,590,557,591,592,592,
592,625,592,557,557,625,590,625,591,592,625,590,625,592,591,625,590,592,592,592,592,591,590,590,625,557,590,592,592,591,
625,625,590,625,591,591,592,592,592,590,557,625,592,592,590,557,557,590,590,557,625,592,590,591,591,591,591,591,625,590,
590,625,557,592,557,591,591,557,591,625,557,557,592,591,625,591,557,591,590,590,592,591,590,557,592,592,590,557,591,557,
590,591,592,591,557,625,591,590,625,590,590,557,590,592,557,625,591,592,625,592,591,592,591,591,557,591,557,591,625,592,
590,591,557,625,590,590,590,625,625,557,590,590,591,591,625,557,592,591,592,557,590,591,591,557,557,557,590,625,590,625,
592,625,592,557,557,591,557,557,591,557,557,557,625,592,591,625,557,591,557,590,591,557,590,625,625,590,590,557,557,625,
557,592,592,557,590,625,557,590,557,625,625,591,591,590,590,590,591,592,591,557,592,591,590,592,590,625,591,557,591,591,
557,591,625,590,590,625,591,557,591,591,557,625,592,625,557,592,625,592,591,625,591,592,557,557,591,591,592,592,625,557,
625,591,625,625,590,625,590,557,591,557,557,625,592,591,592,625,557,591,590,591,625,590,557,592,557,626,1184,659,1303,1303,
557,590,590,592,591,591,557,592,557,557,557,591,591,591,557,557,625,592,625,592,591,625,590,592,626,660,1490,1490,1490,1490,
1269,659,1269,1303,1184,659,1303,1303,1184,1269,1303,1218,1303,1303,624,557,592,590,557,557,557,625,626,1218,660,1490,1490,1490,1490,1490,
1490,1490,1490,1490,1490,1490,1490,1490,1490,1490,1490,1490,1490,1490,623,1218,1184,1269,1303,659,1218,1184,627,1490,1490,1490,1490,1490,1490,1490
</data>
 </layer>
 <layer id="3" name="ground_path" width="30" height="30">
  <data encoding="csv">
0,0,0,0,0,0,0,0,0,0,0,0,0,0,0,0,0,0,0,0,0,0,0,0,0,0,0,0,0,0,
0,0,0,0,0,0,0,0,0,0,0,0,0,0,0,0,0,0,0,0,0,0,0,0,0,0,0,0,0,0,
0,0,0,0,0,0,0,0,0,0,0,0,0,0,0,0,0,0,0,0,0,0,0,0,0,0,0,1717,0,0,
0,0,0,3525,3526,0,0,3529,3530,0,0,3525,3526,0,0,3529,3530,0,0,3525,3526,0,0,3529,3530,0,1747,1717,0,0,
0,0,0,3589,3590,0,0,3593,3594,0,0,3589,3590,0,0,3593,3594,0,0,3589,3590,0,0,3593,3594,0,1747,1717,0,0,
0,0,0,3653,0,0,0,0,3658,0,0,3653,0,0,0,0,3658,0,0,3653,0,0,0,0,3658,1685,1555,1717,1719,0,
0,0,0,0,0,0,0,0,0,0,0,0,0,0,0,0,0,0,0,0,0,0,0,0,1747,1717,1717,1717,1751,0,
0,0,0,0,0,0,0,0,0,0,0,0,0,0,0,0,0,0,0,0,0,0,0,0,1747,1717,1719,0,0,0,
0,0,0,0,0,0,0,0,0,0,0,0,0,0,0,0,0,0,0,0,0,0,0,0,1715,1717,1751,0,0,0,
0,0,0,0,0,0,0,0,0,0,0,0,0,0,0,0,0,0,0,0,0,0,0,0,1747,1717,0,0,0,0,
0,0,0,0,0,0,0,0,0,0,0,0,0,0,0,0,0,0,0,0,0,0,0,0,1779,1717,0,0,0,0,
0,0,0,0,118,119,119,119,119,119,119,119,119,119,119,119,119,119,119,119,119,119,120,0,1749,1749,1749,1749,1749,1719,
0,0,0,0,190,191,191,191,191,191,191,191,172,210,173,174,191,191,191,191,191,191,175,1749,1749,1749,1749,1749,1749,1751,
0,0,0,0,0,0,0,0,0,0,0,0,153,137,154,157,0,0,0,0,0,0,0,0,0,0,0,0,0,0,
0,0,0,0,0,0,0,0,0,0,0,0,171,172,174,192,0,0,0,0,0,0,0,0,0,0,0,0,0,0,
0,0,0,2489,0,0,0,0,2494,0,0,0,0,153,157,0,0,0,0,2489,0,0,0,0,2494,0,0,0,0,0,
0,0,0,2553,0,0,0,0,2558,0,0,0,0,153,157,0,0,0,0,0,0,0,0,0,0,0,0,0,0,0,
0,0,0,0,2618,2619,2620,2621,0,0,0,0,0,153,157,0,0,0,0,0,2618,2619,2620,2621,0,0,0,0,0,0,
0,0,0,2681,2682,2683,2684,2685,2686,0,0,0,0,153,157,0,0,0,0,2681,2682,2683,2684,2685,2686,0,0,0,0,0,
0,0,0,2745,2746,2747,2748,2749,2750,0,0,0,0,153,157,0,0,0,0,2745,2746,2747,2748,2749,2750,0,0,0,0,0,
0,0,0,2809,2810,2811,2812,2813,2814,0,0,0,0,153,157,0,0,0,0,2809,2810,2811,2812,2813,2814,0,0,0,0,0,
0,0,0,2873,2874,2875,2876,2877,2878,0,0,0,0,153,157,0,0,0,0,2873,2874,2875,2876,2877,2878,0,0,0,0,0,
0,0,0,2937,2938,2939,2940,2941,2942,0,0,0,0,153,157,0,0,0,0,2937,2938,2939,2940,2941,2942,0,0,0,0,0,
118,119,119,119,119,119,119,119,119,119,119,119,119,136,138,119,119,119,119,119,119,119,119,119,119,119,119,119,119,120,
190,191,191,191,191,191,191,191,191,191,191,191,191,191,191,191,191,191,191,191,191,191,191,191,191,191,191,191,191,192,
0,0,0,0,0,0,0,0,0,0,0,0,0,0,0,0,0,0,0,0,0,0,0,0,0,0,0,0,0,0,
0,0,0,0,0,0,0,0,0,0,0,0,0,0,0,0,0,0,0,0,0,0,0,0,0,0,0,0,0,0,
0,0,0,0,0,0,0,0,0,0,0,0,0,0,0,0,0,0,0,0,0,0,0,0,0,0,0,0,0,0,
0,0,0,0,0,0,0,0,0,0,0,0,0,0,0,0,0,0,0,0,0,0,0,0,0,0,0,0,0,0,
0,0,0,0,0,0,0,0,0,0,0,0,0,0,0,0,0,0,0,0,0,0,0,0,0,0,0,0,0,0
</data>
 </layer>
 <layer id="8" name="gound_house" width="30" height="30">
  <data encoding="csv">
0,0,0,0,0,0,0,0,0,0,0,0,0,0,0,0,0,0,0,0,0,0,0,0,0,0,0,0,0,0,
0,0,0,0,0,0,0,0,0,0,0,0,0,0,0,0,0,0,0,0,0,0,0,0,0,0,0,0,0,0,
0,0,0,0,0,0,0,0,0,0,0,0,0,0,0,0,0,0,0,0,0,0,0,0,0,0,0,0,0,0,
0,0,0,0,0,0,0,0,0,0,0,0,0,0,0,0,0,0,0,0,0,0,0,0,0,0,0,0,0,0,
0,0,0,0,0,0,0,0,0,0,0,0,0,0,0,0,0,0,0,0,0,0,0,0,0,0,0,0,0,0,
0,0,0,0,0,0,0,0,0,0,0,0,0,0,0,0,0,0,0,0,0,0,0,0,0,0,0,0,0,0,
0,0,0,0,0,0,0,0,0,0,0,0,0,0,0,0,0,0,0,0,0,0,0,0,0,0,0,0,0,0,
0,0,0,0,0,3259,3260,0,0,0,0,0,0,3259,3260,0,0,0,0,0,0,3259,3260,0,0,0,0,0,0,0,
0,0,0,0,0,3387,3388,0,0,0,0,0,0,3387,3388,0,0,0,0,0,0,3387,3388,0,0,0,0,0,0,0,
0,0,0,3449,3450,3451,3452,3453,3454,0,0,3449,3450,3451,3452,3453,3454,0,0,3449,3450,3451,3452,3453,3454,0,0,0,0,0,
0,0,0,3513,3514,3515,3516,3517,3518,0,0,3513,3514,3515,3516,3517,3518,0,0,3513,3514,3515,3516,3517,3518,0,0,0,0,0,
0,0,0,0,0,0,0,0,0,0,0,0,0,0,0,0,0,0,0,0,0,0,0,0,0,0,0,0,0,0,
0,0,0,0,0,0,0,0,0,0,0,0,0,0,0,0,0,0,0,0,0,0,0,0,0,0,0,0,0,0,
0,0,0,0,0,0,0,0,0,0,0,0,0,0,0,0,0,0,0,0,0,0,0,0,0,0,0,0,0,0,
0,0,0,0,0,0,0,0,0,0,0,0,0,0,0,0,0,0,0,0,0,0,0,0,0,0,0,0,0,0,
0,0,0,0,0,0,0,0,0,0,0,0,0,0,0,0,0,0,0,0,0,0,0,0,0,0,0,0,0,0,
0,0,0,0,0,0,0,0,0,0,0,0,0,0,0,0,0,0,0,0,0,0,0,0,0,0,0,0,0,0,
0,0,0,0,0,0,0,0,0,0,0,0,0,0,0,0,0,0,0,0,0,0,0,0,0,0,0,0,0,0,
0,0,0,0,0,0,0,0,0,0,0,0,0,0,0,0,0,0,0,0,0,0,0,0,0,0,0,0,0,0,
0,0,0,0,0,0,0,0,0,0,0,0,0,0,0,0,0,0,0,0,0,0,0,0,0,0,0,0,0,0,
0,0,0,0,0,0,0,0,0,0,0,0,0,0,0,0,0,0,0,0,0,0,0,0,0,0,0,0,0,0,
0,0,0,0,0,0,0,0,0,0,0,0,0,0,0,0,0,0,0,0,0,0,0,0,0,0,0,0,0,0,
0,0,0,0,0,0,0,0,0,0,0,0,0,0,0,0,0,0,0,0,0,0,0,0,0,0,0,0,0,0,
0,0,0,0,0,0,0,0,0,0,0,0,0,0,0,0,0,0,0,0,0,0,0,0,0,0,0,0,0,0,
0,0,0,0,0,0,0,0,0,0,0,0,0,0,0,0,0,0,0,0,0,0,0,0,0,0,0,0,0,0,
0,0,0,0,0,0,0,0,0,0,0,0,0,0,0,0,0,0,0,0,0,0,0,0,0,0,0,0,0,0,
0,0,0,0,0,0,0,0,0,0,0,0,0,0,0,0,0,0,0,0,0,0,0,0,0,0,0,0,0,0,
0,0,0,0,0,0,0,0,0,0,0,0,0,0,0,0,0,0,0,0,0,0,0,0,0,0,0,0,0,0,
0,0,0,0,0,0,0,0,0,0,0,0,0,0,0,0,0,0,0,0,0,0,0,0,0,0,0,0,0,0,
0,0,0,0,0,0,0,0,0,0,0,0,0,0,0,0,0,0,0,0,0,0,0,0,0,0,0,0,0,0
</data>
 </layer>
 <layer id="2" name="collision" width="30" height="30" visible="0">
  <data encoding="csv">
0,0,0,0,0,0,0,0,0,0,0,0,0,0,0,0,0,0,0,0,0,0,0,0,0,0,0,0,0,0,
0,0,0,0,0,0,0,0,0,0,0,0,0,0,0,0,0,0,0,0,0,0,0,0,0,0,0,0,0,0,
0,0,0,0,0,0,0,0,0,0,0,0,0,0,0,0,0,0,0,0,0,0,0,0,0,0,0,0,0,0,
0,0,0,0,0,0,0,6273,6273,0,0,6273,6273,0,0,0,0,6273,6273,0,0,0,0,0,6273,6273,0,0,0,0,
0,0,6273,6273,0,0,0,0,0,0,0,0,0,0,0,0,0,0,0,0,0,0,0,0,0,0,0,0,6273,6273,
0,0,0,0,0,0,0,0,0,0,0,0,0,0,0,0,0,0,0,0,0,0,0,0,0,0,0,0,0,0,
0,0,0,0,0,0,0,0,0,0,0,0,0,0,0,0,0,0,0,0,0,0,0,0,0,0,0,0,0,0,
0,0,0,0,0,6273,6273,0,0,0,0,0,0,6273,6273,0,0,0,0,0,0,6273,6273,0,0,0,0,0,0,0,
0,0,0,0,0,6273,6273,0,0,0,0,0,0,6273,6273,0,0,0,0,0,0,6273,6273,0,0,0,0,0,0,0,
0,0,0,0,6273,6273,6273,6273,0,0,0,0,6273,6273,6273,6273,0,0,0,0,6273,6273,6273,6273,0,0,6273,6273,6273,6273,
0,0,0,0,6273,6273,6273,6273,0,6273,0,0,6273,6273,6273,6273,0,6273,0,0,6273,6273,6273,6273,0,0,6273,6273,6273,6273,
0,0,0,0,0,0,0,0,0,0,0,0,0,0,0,0,0,0,0,0,0,0,0,0,0,0,0,0,0,0,
0,0,0,0,0,0,0,0,0,0,0,0,0,0,0,0,0,0,0,0,0,0,0,0,0,0,0,0,0,0,
0,0,0,0,0,0,0,0,0,0,0,0,0,0,0,0,0,0,0,0,0,0,0,0,0,0,0,0,0,0,
0,0,0,0,0,0,0,0,0,0,0,0,0,0,0,0,0,0,0,0,0,0,0,0,0,0,0,0,0,0,
0,0,0,0,0,0,0,0,0,0,0,0,0,0,0,0,0,0,0,0,0,0,0,0,0,0,0,6273,6273,0,
0,0,0,0,0,0,0,0,0,0,0,0,0,0,0,0,0,0,0,0,0,0,0,0,0,0,0,0,0,0,
0,0,0,0,0,0,0,0,0,0,0,0,0,0,0,0,0,0,0,0,0,0,0,0,0,0,0,0,0,0,
0,0,0,0,0,6273,6273,0,0,0,0,0,0,0,0,0,0,0,0,0,0,6273,6273,0,0,0,0,0,0,0,
0,0,0,0,6273,6273,6273,6273,0,6273,6273,6273,0,0,0,0,0,0,0,0,6273,6273,6273,6273,0,0,0,0,0,0,
0,0,0,0,6273,6273,6273,6273,0,0,0,0,0,0,0,0,0,0,0,0,6273,6273,6273,6273,0,0,0,0,0,0,
0,0,0,0,6273,6273,6273,6273,0,0,0,0,0,0,0,0,0,0,0,0,6273,0,0,6273,0,0,0,0,0,0,
0,0,6273,6273,6273,6273,6273,6273,0,0,0,6273,0,0,0,6273,0,0,0,0,6273,0,0,6273,6273,6273,0,0,0,0,
0,0,0,0,0,0,0,0,0,0,0,0,0,0,0,0,0,0,0,0,0,0,0,0,0,0,0,0,0,0,
0,0,0,0,0,0,0,0,0,0,0,0,0,0,0,0,0,0,0,0,0,0,0,0,0,0,0,0,0,0,
0,0,0,0,0,0,0,0,0,0,0,0,0,0,0,0,0,0,0,0,0,0,0,0,0,0,0,0,0,0,
0,0,0,0,0,0,0,0,0,0,0,0,0,0,0,0,0,0,0,0,0,0,0,0,0,0,0,0,0,0,
0,0,0,0,0,0,0,0,0,0,0,0,0,0,0,0,0,0,0,0,0,0,0,0,0,0,6273,6273,6273,6273,
0,0,0,0,0,0,0,0,0,0,0,0,0,0,0,0,0,0,0,0,0,0,0,0,0,6273,6273,6273,6273,6273,
6273,6273,6273,6273,6273,6273,6273,6273,6273,6273,6273,6273,6273,6273,0,0,0,0,0,0,0,0,0,6273,6273,6273,6273,6273,6273,6273
</data>
 </layer>
 <layer id="4" name="decor_below" width="30" height="30">
  <data encoding="csv">
0,0,0,0,0,0,0,7286,0,0,7286,0,0,7289,0,0,7286,0,0,7289,0,0,0,0,7286,0,0,7289,0,0,
0,7286,0,0,7289,0,0,7318,0,0,7318,0,0,7321,0,0,7318,0,0,7321,0,0,0,0,7318,0,0,0,0,0,
0,7318,0,0,7321,0,0,0,0,0,0,0,0,7353,0,0,0,0,0,7353,0,0,0,0,0,0,0,7353,0,0,
0,7350,0,0,7353,0,7382,7383,7384,7385,0,7383,7384,7385,0,0,0,7383,7384,7385,0,0,0,7382,7383,7384,7385,7385,0,0,
0,7382,7383,7384,7385,0,7414,7415,7416,7417,7414,7415,7416,7417,0,0,7414,7415,7416,7417,0,0,0,7414,7415,7416,7417,7417,7383,7384,
0,7414,7415,7416,7417,0,0,0,0,0,0,0,0,0,0,0,0,0,0,0,0,0,0,0,0,0,0,7414,7415,7416,
0,0,0,0,0,0,0,0,0,0,0,0,0,0,0,0,0,0,0,0,0,0,0,0,0,0,0,0,0,0,
0,0,0,0,0,0,0,0,0,0,0,0,0,0,0,0,0,0,0,0,0,0,0,0,0,0,0,0,0,0,
0,0,0,0,0,0,0,0,0,0,0,0,0,0,0,0,0,0,0,0,0,0,0,0,0,0,0,0,0,0,
0,0,0,0,0,0,0,0,0,0,0,0,0,0,0,0,0,0,0,0,0,0,0,0,0,0,6674,6675,6676,6538,
0,0,0,0,0,0,0,0,0,6975,6976,0,0,0,0,0,0,6975,6976,0,0,0,0,0,0,0,6706,6707,6708,6570,
0,0,0,0,0,0,0,0,0,0,0,0,0,0,0,0,0,0,0,0,0,0,0,0,0,0,0,0,0,0,
0,0,0,0,0,0,0,0,0,0,0,0,0,0,0,0,0,0,0,0,0,0,0,0,0,0,7286,0,0,7289,
0,0,0,0,0,0,0,0,0,0,0,0,0,0,0,0,0,0,0,0,0,0,0,0,0,0,7318,0,0,7321,
0,0,0,0,0,0,0,0,0,0,0,0,0,0,0,0,0,0,0,0,0,0,0,0,0,0,7350,0,0,7353,
0,0,0,0,0,0,0,0,0,0,0,0,0,0,0,0,0,0,0,0,0,0,0,0,0,0,7382,7383,7384,7385,
0,0,0,0,0,0,0,0,0,0,0,0,0,0,0,0,0,0,0,0,0,0,0,0,0,0,7414,7415,7416,7417,
0,0,0,0,0,0,0,0,0,0,0,0,0,0,0,0,0,0,0,0,0,0,0,0,0,0,0,0,0,0,
0,0,0,0,0,0,0,0,0,6420,6421,6422,0,0,0,0,0,0,0,0,0,0,0,0,0,0,0,0,0,0,
0,0,0,0,0,0,0,0,0,6452,6453,6454,0,0,0,0,0,0,0,0,0,0,0,0,0,0,0,0,0,0,
0,0,0,0,0,0,0,0,0,0,0,0,0,0,0,0,0,0,0,0,0,0,0,0,0,0,0,0,0,0,
0,0,7242,7243,0,0,0,0,0,0,0,0,0,0,0,0,0,0,0,0,0,0,0,0,7300,7301,0,0,0,0,
0,0,7274,7275,0,0,0,0,0,0,0,6975,6976,0,0,6975,6976,0,0,0,0,0,0,0,7332,7333,0,0,0,0,
0,0,0,0,0,0,0,0,0,0,0,0,0,0,0,0,0,0,0,0,0,0,0,0,0,0,0,0,0,0,
0,0,0,0,0,0,0,0,0,0,0,0,0,0,0,0,0,0,0,0,0,0,0,0,0,0,0,0,0,0,
0,0,0,0,0,0,0,0,0,0,0,0,0,0,0,0,0,0,0,0,0,0,0,0,0,0,0,0,0,0,
0,0,0,0,0,0,0,0,0,0,0,0,0,0,0,0,0,0,0,0,0,0,0,0,0,0,0,0,0,0,
0,0,0,0,0,0,0,0,0,0,0,0,0,0,0,0,0,0,0,0,0,0,0,0,0,0,0,0,0,0,
0,0,0,0,0,0,0,0,0,0,0,0,0,0,0,0,0,0,0,0,0,0,0,0,0,0,0,0,0,0,
0,0,0,0,0,0,0,0,0,0,0,0,0,0,0,0,0,0,0,0,0,0,0,0,0,0,0,0,0,0
</data>
 </layer>
 <objectgroup id="5" name="entities">
  <object id="1" name="default_spawn" type="player_spawn" x="447.822" y="449.285">
   <point/>
  </object>
  <object id="2" name="from_vally_house" type="player_spawn" x="706.856" y="780.03">
   <point/>
  </object>
  <object id="3" name="from_beach" type="player_spawn" x="911.742" y="771.249">
   <point/>
  </object>
  <object id="4" name="Möhrchen" type="npc" x="212.203" y="403.186">
   <properties>
    <property name="can_recruit" type="bool" value="true"/>
    <property name="dialog" value="Huhi {PLAYER}, ich bins doch Möhrchen, kennst Du mich noch? Ich hab jetzt einen Buchhalter Kurs gemacht, toll oder, vielleicht?"/>
    <property name="dialog_joined" value="Endlich, sind wir wieder zusammen, das hat ja ewig gedauert!"/>
    <property name="recruit_id" value="moehrchen"/>
    <property name="sprite" value="moehrchen.png"/>
   </properties>
   <point/>
  </object>
  <object id="6" name="Händlerin" type="npc" x="908.083" y="362.941">
   <properties>
    <property name="dialog" value="Willkommen in meinem Laden! Schau dich ruhig um, {PLAYER}."/>
    <property name="is_shop" type="bool" value="true"/>
    <property name="shop_items" value="health_potion,wooden_sword,wooden_shield,iron_sword,torch"/>
    <property name="sprite" value="npc.png"/>
   </properties>
   <point/>
  </object>
  <object id="7" name="chest_village_01" type="chest" x="878.814" y="48.2946">
   <properties>
    <property name="content_amount" type="int" value="15"/>
    <property name="content_type" value="gold"/>
   </properties>
   <point/>
  </object>
  <object id="8" name="blobb_village_01" type="monster" x="690.026" y="82.6861">
   <properties>
    <property name="enemy_id" value="blobb"/>
   </properties>
   <point/>
  </object>
  <object id="9" name="blobb_village_03" type="monster" x="526.118" y="913.937">
   <properties>
    <property name="enemy_id" value="blobb"/>
   </properties>
   <point/>
  </object>
  <object id="10" name="blobb_village_02" type="monster" x="189.519" y="62.1975">
   <properties>
    <property name="enemy_id" value="blobb"/>
   </properties>
   <point/>
  </object>
 </objectgroup>
 <objectgroup id="6" name="portals">
  <object id="5" name="vally_house_door" type="portal" x="703.929" y="719.296">
   <properties>
    <property name="target_map" value="vally_house.tmx"/>
    <property name="target_spawn" value="default_spawn"/>
   </properties>
  </object>
 </objectgroup>
 <layer id="7" name="decor_above" width="30" height="30">
  <data encoding="csv">
0,0,0,0,0,0,7286,7287,7288,7289,7286,7287,7288,7289,0,0,7286,7287,7288,7289,0,0,0,7286,7287,7288,7289,0,0,0,
0,7286,7287,7288,7289,0,7318,7319,7320,7321,7318,7319,7320,7321,0,0,7318,7319,7320,7321,0,0,0,7318,7319,7320,7321,7286,7287,7288,
0,7318,7319,7320,7321,0,7350,7351,7352,7353,7350,7351,7352,7353,0,0,7350,7351,7352,7353,0,0,0,7350,7351,7352,7353,7318,7319,7320,
0,7350,7351,7352,3526,0,0,3529,3530,0,0,3525,3526,0,0,3529,3530,0,0,3525,3526,0,0,3529,3530,0,0,7350,7351,7352,
0,0,0,3589,3590,3067,3068,3593,3594,0,0,3589,3590,3067,3068,3593,3594,0,0,0,0,3067,3068,0,3594,0,0,0,0,0,
0,0,0,3653,3130,3131,3132,3133,3658,0,0,3653,3130,3131,3132,3133,3658,0,0,0,3130,3131,3132,3133,0,0,0,0,0,0,
0,0,0,3193,3194,3195,3196,3197,3198,0,0,3193,3194,3195,3196,3197,3198,0,0,3193,3194,3195,3196,3197,3198,0,0,0,0,0,
0,0,0,3257,3258,3259,3260,3261,3262,0,0,3257,3258,3259,3260,3261,3262,0,0,3257,3258,3259,3260,3261,3262,0,0,0,0,0,
0,0,0,3321,3322,0,0,3325,3326,6911,6912,3321,3322,0,0,3325,3326,6911,6912,3321,3322,0,0,3325,3326,0,0,0,0,0,
0,0,0,0,0,0,0,0,0,6943,6944,0,0,0,0,0,0,6943,6944,0,0,0,0,0,0,0,0,0,0,0,
0,0,0,0,0,0,0,0,0,0,0,0,0,0,0,0,0,0,0,0,0,0,0,0,0,0,0,0,0,0,
0,0,0,0,0,0,0,0,0,0,0,0,0,0,0,0,0,0,0,0,0,0,0,0,0,0,0,0,0,0,
0,0,0,0,0,0,0,0,0,0,0,0,0,0,0,0,0,0,0,0,0,0,0,0,0,0,7286,7287,7288,7289,
0,0,0,0,0,0,0,0,0,0,0,0,0,0,0,0,0,0,0,0,0,0,0,0,0,0,7318,7319,7320,7321,
0,0,0,0,0,2427,2428,0,0,0,0,0,0,0,0,0,0,0,0,0,0,2427,2428,0,0,0,7350,7351,7352,7353,
0,0,0,2489,2490,2491,2492,2493,2494,0,0,0,0,0,0,0,0,0,0,2489,2490,2491,2492,2493,2494,0,0,0,0,0,
0,0,0,2553,2554,2555,2556,2557,2558,0,0,0,0,0,0,0,0,0,0,2553,2554,2555,2556,2557,2558,0,0,0,0,0,
0,0,0,2617,2618,2619,2620,2621,2622,0,0,0,0,0,0,0,0,0,0,2617,2618,2619,2620,2621,2622,0,0,0,0,0,
0,0,0,2681,2682,0,0,2685,2686,0,0,0,0,0,0,0,0,0,0,2681,2682,0,0,2685,2686,0,0,0,0,0,
0,0,0,2745,0,0,0,0,2750,0,0,0,0,0,0,0,0,0,0,2745,0,0,0,0,2750,0,0,0,0,0,
0,0,0,2809,0,0,0,0,2814,0,0,6911,6912,0,0,6911,6912,0,0,2809,0,0,0,0,2814,0,0,0,0,0,
0,0,0,0,0,0,0,0,0,0,0,6943,6944,0,0,6943,6944,0,0,0,0,0,0,0,0,0,0,0,0,0,
0,0,0,0,0,0,0,0,0,0,0,0,0,0,0,0,0,0,0,0,0,0,0,0,0,0,0,0,0,0,
0,0,0,0,0,0,0,0,0,0,0,0,0,0,0,0,0,0,0,0,0,0,0,0,0,0,0,0,0,0,
0,0,0,0,0,0,0,0,0,0,0,0,0,0,0,0,0,0,0,0,0,0,0,0,0,0,0,0,0,0,
0,0,0,0,0,0,0,0,0,0,0,0,0,0,0,0,0,0,0,0,0,0,0,0,0,0,0,0,0,0,
0,0,0,0,0,0,0,0,0,0,0,0,0,0,0,0,0,0,0,0,0,0,0,0,0,0,0,0,0,0,
0,0,0,0,0,0,0,0,0,0,0,0,0,0,0,0,0,0,0,0,0,0,0,0,0,0,0,0,0,0,
0,0,0,0,0,0,0,0,0,0,0,0,0,0,0,0,0,0,0,0,0,0,0,0,0,0,0,0,0,0,
0,0,0,0,0,0,0,0,0,0,0,0,0,0,0,0,0,0,0,0,0,0,0,0,0,0,0,0,0,0
</data>
 </layer>
</map>
